!!!COM: Bach, Johann Sebastian
!!!OPR: Joh. Seb. Bachs vierstimmige Choralges‰nge
!!!XEN: Four-part Chorales
!!!OTL: 119. Lass, o Herr, dein Ohr sich neigen
!!!SCT: BWV 372
!!!SCA: Thematisch-systematisches Verzeichnis der musikalischen Werke Johann Sebastian Bach: Bach-Werke-Verzeichnis (Schmieder)
!!!YOR: Bach Gesellschaft Edition xxxix
!!!ENC: Steven Rasmussen
!!!CDT: 1685/3//-1750/7/28/
!!!OCY: Deutschland
!!!YEC: Copyright (c) 1994, 2000 Center for Computer Assisted Research in the Humanities
!!!YEM: Rights to all derivative editions reserved
!!!YEN: United States of America
**kern	**silbe	**kern	**kern	**kern
*I:[SOPRANO]	*I:[SOPRANO]	*I:[ALTO]	*I:[TENORE]	*I:[BASSO]
*>[A,A,B]	*	*>[A,A,B]	*>[A,A,B]	*>[A,A,B]
*>A	*	*>A	*>A	*>A
*clefG2	*	*clefG2	*clefGv2	*clefF4
*k[b-]	*	*k[b-]	*k[b-]	*k[b-]
*d:	*	*d:	*d:	*d:
*M4/4	*	*M4/4	*M4/4	*M4/4
=1-	=1-	=1-	=1-	=1-
4g	Lass,dir	4d	4B-	8GGL
.	.	.	.	8AAJ
4g	omein	4d	4B-	8BB-L
.	.	.	.	8CJ
4f#	Herr,Wort	4d	4A	8DL
.	.	.	.	8CJ
4g	deinzu	4d	4B-	8BB-L
.	.	.	.	8GGJ
=2	=2	=2	=2	=2
4a	OhrHer-	8e-L	4c	4FF#
.	.	8dJ	.	.
4b-	sich-zen	8dL	8B-L	4GG
.	.	8gJ	8dJ	.
2a	nei-stei-	4g	4e-	4C
.	.	4f#	8dL	4D
.	.	.	8cJ	.
=3	=3	=3	=3	=3
2g;	-gen,-gen,	2d;	2B-;	2GG;
=:|!	=:|!	=:|!	=:|!	=:|!
*>B	*	*>B	*>B	*>B
4b-	und	4g	4d	4G
4a	stoss'	8gL	8.dL	4D
.	.	8f#J	.	.
.	.	.	16cJk	.
=4	=4	=4	=4	=4
4g	mich	4g	8B-L	4E-
.	.	.	8cJ	.
4b-	nicht	8gL	4d	4BB-
.	.	8fJ	.	.
4a	von	8e-L	4c	4C
.	.	8dJ	.	.
4g	dir	4en	8B-L	4C#
.	.	.	8AJ	.
=5	=5	=5	=5	=5
2f#;	hin,	2d;	2A;	2D;
4fn	weil	8AL	4F	8DL
.	.	8B-J	.	8CJ
4e-	ich	4c	4F	8BB-L
.	.	.	.	8AAJ
=6	=6	=6	=6	=6
4d	arm	8B-L	4F	8BB-L
.	.	8cJ	.	8AAJ
4g	und	4d	4B-	8GGL
.	.	.	.	8BB-J
4g	e-	4e-	4A	8CL
.	.	.	.	8AAJ
4f#	-lend	4d	16ALL	4D
.	.	.	16B-J	.
.	.	.	8cJ	.
=7	=7	=7	=7	=7
2g;	bin:	2d;	2B-;	2GG;
4b-	h√º-	4g	4d	4G
4cc	-te	4a	4f	8FL
.	.	.	.	8E-J
=8	=8	=8	=8	=8
4dd	mei-	4b-	4f	8DL
.	.	.	.	8CJ
4dd	-ne	8b-L	4f	4BB-
.	.	8a-J	.	.
4cc	Seel'	8gL	8e-L	8BB-L
.	.	8fJ	8cJ	8AAJ
4b-	und	4f	8dL	8BB-L
.	.	.	8B-J	8DJ
=9	=9	=9	=9	=9
2cc	Le-	4g	8B-L	8E-L
.	.	.	16AL	8CJ
.	.	.	16GJJ	.
.	.	8fL	4A	4F
.	.	8e-J	.	.
2b-;	-ben,	2d;	2B-;	2BB-;
=10	=10	=10	=10	=10
4b-	die	4f	4d	4.BB-
4cc	ich	4f	4c	.
.	.	.	.	8AA
4dd	hei-	4f	8cL	8BB-L
.	.	.	16B-L	8FJ
.	.	.	16AJJ	.
4dd	-lig	4f	4B-	4B-
=11	=11	=11	=11	=11
4cc	dir	8fL	4A	4F
.	.	8e-J	.	.
4b-	er-	4d	4B-	8GL
.	.	.	.	8FJ
2cc	-ge-	4g	4B-	4E-
.	.	8fL	4A	4F
.	.	8e-J	.	.
=12	=12	=12	=12	=12
2b-;	-ben:	2d;	2F;	2BB-;
4b-	reiss'	4d	4G	4GG
4a	mich,	8dL	4F#	4D
.	.	8cJ	.	.
=13	=13	=13	=13	=13
4g	dei-	4B-	4G	4.E-
4b-	-nen	8e-L	4G	.
.	.	8dJ	.	8En
4a	Knecht,	8cL	4A	8FL
.	.	8dJ	.	8F#J
4g	aus	4d	4B-	8GL
.	.	.	.	8GGJ
=14	=14	=14	=14	=14
2f#;	Not,	2d;	2A;	2D;
4fn	der	4d	4G	4BBn
4e-	auf	8dL	4G	4C
.	.	16cL	.	.
.	.	16B-JJ	.	.
=15	=15	=15	=15	=15
4d	dich	4A	4F#	8CL
.	.	.	.	16BB-L
.	.	.	.	16AAJJ
4g	nur	4d	8GL	8BB-L
.	.	.	8B-J	8GGJ
4g	hofft,	4e-	4A	8CL
.	.	.	.	8AAJ
4f#	o	4d	8AL	4D
.	.	.	8cJ	.
=16	=16	=16	=16	=16
2g;	Gott!	2d;	2Bn;	2GG;
==|!	==|!	==|!	==|!	==|!
*-	*-	*-	*-	*-
!!!RWG: Key is interpreted using the Humdrum key tool.
!!!END: 1994/07/14
!!!EMD: Converted from MuseData to Humdrum Dec 19, 2000, by Andreas Kornstaedt using muse2kern.
!!!EED: Craig Stuart Sapp
!!!EEV: 2024/03/31
!!!ONB: Some non-unicode characters
